img/kamaz.svg

<svg width="48" height="48" viewBox="0 0 48 48" fill="none" xmlns="http://www.w3.org/2000/svg">
<g clip-path="url(#clip0)">
<path d="M46.967 25.747C50.602 12.625 44.314 0 33.295 0C27.198 0 24.595 3.504 17.898 11.663C11.2 19.822 1.65 8.478 0 25.747C1.386 41.66 18.652 56.064 26.668 42.774C33.966 30.674 43.333 38.868 46.968 25.747H46.967Z" fill="#E6F1F9"/>
<path d="M27.923 19.0002C27.368 19.0002 27 19.3682 27 19.9232V29.5002C27 29.9622 27.368 30.4232 27.923 30.4232C28.107 28.8552 29.338 27.5002 31.001 27.5002C32.663 27.5002 33.817 28.8382 34.001 30.5002H35.001C35.556 30.5002 36.001 30.0942 36.001 29.5382V24.9232C36.001 24.0932 35.251 23.0772 35.251 23.0772L33.231 19.9622C32.769 19.4062 32.491 19.0382 31.846 19.0382L27.923 19.0002ZM29.001 21.0002H32.001L34.067 24.0872C34.251 24.3642 34.5 24.7222 34.5 25.0002H29L29.001 21.0002ZM16.001 29.0002C14.828 29.0002 14.001 29.8282 14.001 31.0002C14.001 32.1722 14.829 33.0002 16.001 33.0002C17.173 33.0002 18.001 32.1722 18.001 31.0002C18.001 29.8282 17.171 29.0002 16.001 29.0002ZM31.001 29.0002C29.829 29.0002 29.001 29.8282 29.001 31.0002C29.001 32.1722 29.829 33.0002 31.001 33.0002C32.173 33.0002 33.001 32.1722 33.001 31.0002C33.001 29.8282 32.172 29.0002 31.001 29.0002ZM20 31.0002C20 29.8282 20.828 29.0002 22 29.0002C23.172 29.0002 24 29.8282 24 31.0002C24 32.1722 23.172 33.0002 22 33.0002C20.829 33.0002 20 32.1722 20 31.0002ZM13.553 21.0002C13.2065 20.7192 12.9638 20.3305 12.8636 19.8958C12.7634 19.4612 12.8114 19.0054 13 18.6012L14.114 16.2112C14.3025 15.807 14.6208 15.4774 15.0181 15.2748C15.4155 15.0723 15.8691 15.0083 16.307 15.0932L20.362 15.8792C20.5222 15.9101 20.678 15.9604 20.826 16.0292L24.519 17.7512C24.6904 17.8311 24.8443 17.9441 24.9721 18.0835C25.0998 18.223 25.1988 18.3863 25.2634 18.564C25.3281 18.7417 25.3571 18.9305 25.3487 19.1194C25.3404 19.3083 25.295 19.4938 25.215 19.6652L22.723 25.2052C22.643 25.3766 22.5301 25.5305 22.3906 25.6582C22.2511 25.786 22.0879 25.885 21.9102 25.9496C21.7324 26.0142 21.5437 26.0432 21.3548 26.0349C21.1658 26.0266 20.9804 25.9812 20.809 25.9012L17.117 24.1792C16.9686 24.1102 16.8292 24.0232 16.702 23.9202L13.553 21.0002Z" fill="#036FC7"/>
<path d="M12.5 27C11.945 27 12 27.445 12 28V29.5C12 30.055 11.945 30.462 12.5 30.462H13V28H25V30.462L25.215 30.423C25.77 30.423 26 30.055 26 29.5V28C26 27.445 25.555 27 25 27H12.5Z" fill="#036FC7"/>
</g>
<defs>
<clipPath id="clip0">
<rect width="48" height="48" fill="white"/>
</clipPath>
</defs>
</svg>

<svg width="48" height="48" fill="none" xmlns="http://www.w3.org/2000/svg"><g clip-path="url(#clip0)"><path d="M46.967 25.747C50.602 12.625 44.314 0 33.295 0c-6.097 0-8.7 3.504-15.397 11.663C11.2 19.822 1.65 8.478 0 25.747 1.386 41.66 18.652 56.064 26.668 42.774c7.298-12.1 16.665-3.906 20.3-17.027h-.001z" fill="#E6F1F9"/><path d="M27.923 19c-.555 0-.923.368-.923.923V29.5c0 .462.368.923.923.923.184-1.568 1.415-2.923 3.078-2.923 1.662 0 2.816 1.338 3 3h1c.555 0 1-.406 1-.962v-4.615c0-.83-.75-1.846-.75-1.846l-2.02-3.115c-.462-.556-.74-.924-1.385-.924L27.923 19zm1.078 2h3l2.066 3.087c.184.277.433.635.433.913H29l.001-4zm-13 8c-1.173 0-2 .828-2 2 0 1.172.828 2 2 2 1.172 0 2-.828 2-2 0-1.172-.83-2-2-2zm15 0c-1.172 0-2 .828-2 2 0 1.172.828 2 2 2 1.172 0 2-.828 2-2 0-1.172-.829-2-2-2zM20 31c0-1.172.828-2 2-2 1.172 0 2 .828 2 2 0 1.172-.828 2-2 2-1.171 0-2-.828-2-2zm-6.447-10A2 2 0 0113 18.601l1.114-2.39a2 2 0 012.193-1.118l4.055.786c.16.031.316.081.464.15l3.693 1.722a1.44 1.44 0 01.696 1.914l-2.492 5.54a1.44 1.44 0 01-1.914.696l-3.692-1.722a1.998 1.998 0 01-.415-.259L13.553 21z" fill="#036FC7"/><path d="M12.5 27c-.555 0-.5.445-.5 1v1.5c0 .555-.055.962.5.962h.5V28h12v2.462l.215-.039c.555 0 .785-.368.785-.923V28c0-.555-.445-1-1-1H12.5z" fill="#036FC7"/></g><defs><clipPath id="clip0"><path fill="#fff" d="M0 0h48v48H0z"/></clipPath></defs></svg>
